!!!OTL: Der Hammerschmiedssohn Es wollt' ein Maedchen frueh aufstehn,
!!!ARE: Europa, Suedosteuropa, Jugoslavija, Batschka, Sotin
!!!YOR: 4, S. 353
!!    1938 aufgezeichnet
!!!SCT: Q0088A
!!!YEM: Copyright 1995, estate of Helmut Schaffrath.
**kern
*ICvox
*Ivox
*M3/4
*k[b-]
*F:
{8c
8f
8g
=1
4.a
8b-
8g
8a
=2
4f
8r}
{8c
8f
8a
=3
4.cc
8dd
8b-
8cc
=4
4a
8r}
{8f
8f
8f
=5
4.dd
8ee
8ff
8dd
=6
4cc
8r}
{8a
8a
8cc
=7
4.cc
8dd
8b-
8cc
=8
4a
8r}
==
!!!AGN: Ballade, Verfuehrung, Schwangerschaft, Mord
!!!ONB: ESAC (Essen Associative Code) Database: BALLADE
!!!AMT: simple triple
!!!AIN: vox
!!!EED: Helmut Schaffrath
!!!EEV: 1.0
*-
